X:339
T:Out on the Ocean
R:jig
H:Also played in G, #24
Z:id:hn-jig-339
M:6/8
K:A
|:Ecc cBA|cec B2c|AFE A2B|cBc BAF|Ecc cBA|cec B2c|AFE A2B|1 cAG A2F:|2 cAG Ace||
|:~f3 fec|~f3 fec|efe ece|agf ecB|A2B c2e|faf ecB|AFE A2B|1 cAG Ace:|2 cAG A2F||

